X:1
T:Title
%%score { ( 1 3 ) | ( 2 4 ) }
L:1/8
Q:1/4=100
M:6/8
K:Bb
V:1 treble nm="Grand Piano"
V:3 treble 
V:2 bass 
V:4 bass 
V:1
 [DF][B,D][CE] [DF]2 [EG] | [DF]3 [DB]2 [DB] | [Fd][Ec][DB] cBG | [DF]6 | GEG [GB][FA][EG] | %5
w: James~M.~Black * * * *|||||
 [DB]3 [DF]2 [DF] | [EG][FG][FG] [=Ec][Ec][Ed] | [Fc]6 | .[Fd]6 | dcB c3 | .c6 | cBA [DB]3 | %12
w: |||||||
 .[DB]6[K:bass][K:treble] | %13
w: |
[M:7/8] [DF][FB][Fd] [Ff]3 [Ge][Q:1/4=97][Q:1/4=94][Q:1/4=91][Q:1/4=88][Q:1/4=84][Q:1/4=81][Q:1/4=78] | %14
w: |
[M:3/4] d3 c3 | [DB]6 |] %16
w: ||
V:2
 [B,,B,][B,,F,][B,,F,] [B,,B,]2 [B,,B,] | [B,,B,]3 [B,,F,]2 [B,,F,] | %2
 [B,,B,][B,,B,][B,,B,] [E,G,E][E,G,E][E,B,E] | [B,,B,]6 | [E,B,E][E,G,B,][E,B,E] [E,E]2 [E,B,] | %5
 [B,,B,]3 [B,,B,]2 [B,,B,] | [E,B,][D,=B,][D,B,] [C,G,][C,G,][C,B,] | [F,A,]6 | %8
 [B,,B,]B,,B,, B,,D,[K:treble][F,B,F] | [B,F][A,CF][G,C=E] [F,A,F]3 | .F6 | %11
 [F,EF][F,DF][F,CE] [B,,B,]3 | [B,,F,]B,,B,, B,,[B,,F,][B,,F,] | %13
[M:7/8] [B,,B,][D,B,][F,B,] [B,D]3 [E,B,] |[M:3/4] [F,B,F][F,B,] [F,B,] [F,A,E]2 [F,A,] | %15
 [B,,B,]6 |] %16
V:3
 x6 | x6 | x6 | x6 | x6 | x6 | x6 | x6 | z B,B, B,[B,FB]d | x6 | z A,A, A,Ac | x6 | %12
 z[K:bass] F,F, F,[K:treble][Ec][DB] |[M:7/8] x7 |[M:3/4] z F .F2 z E | x6 |] %16
V:4
 x6 | x6 | x6 | x6 | x6 | x6 | x6 | x6 | x5[K:treble] x | x6 | [F,A,]F,F, F,[F,CF][F,EF] | x6 | %12
 x6 |[M:7/8] x7 |[M:3/4] x6 | x6 |] %16

